X:903
T:The Saraband
C:John Playford, 1651
S:Colin Hume's website,  colinhume.com  - chords can also be printed below the stave.
Q:3/8=112
M:6/8
R:Jig
L:1/8
K:C
P:A
|: "Dm"afa "C"geg | "Bb"fdf "A"e2A | "C"cde "Dm"fga | "C"gaf "Dm"g2f :|
P:B
|: "Am"ccc c>BA | "Dm"agf "Am"e2A | "C"cde "Dm"fga | "C"gaf "Dm"e2d :|

